svgs/sharp-regular/wave-square.svg

<svg xmlns="http://www.w3.org/2000/svg" viewBox="0 0 640 512"><!--! Font Awesome Pro 6.6.0 by @fontawesome - https://fontawesome.com License - https://fontawesome.com/license (Commercial License) Copyright 2024 Fonticons, Inc. --><path d="M136 32l24 0 160 0 24 0 0 24 0 376 112 0 0-176 0-24 24 0 136 0 24 0 0 48-24 0-112 0 0 176 0 24-24 0-160 0-24 0 0-24 0-376L184 80l0 176 0 24-24 0L24 280 0 280l0-48 24 0 112 0 0-176 0-24z"/></svg>

<svg xmlns="http://www.w3.org/2000/svg" viewBox="0 0 640 512"><!--! Font Awesome Pro 6.4.0 by @fontawesome - https://fontawesome.com License - https://fontawesome.com/license (Commercial License) Copyright 2023 Fonticons, Inc. --><path d="M136 32h24H320h24V56 432H456V256 232h24H616h24v48H616 504V456v24H480 320 296V456 80H184V256v24H160 24 0V232H24 136V56 32z"/></svg>
